X:1
T: Miss Jeanette Beaton
C:Dan R. MacDonald
R:Reel
Q: 232
K:D
M:4/4
L:1/8
|:A,|D1/2D1/2D FA df ag|fd ec dA FA|G1/2G1/2G BG F1/2F1/2F AF|EA, CE AG FE|
D1/2D1/2D FA df ag|fe dc dA FD|G1/2G1/2G BG F1/2F1/2F AF|GE AF D1/2D1/2D D:|
|:A1/2c1/2|dc df Ad fd|e^d eg Be ge|fd cd Bd AF|GB, ED CE Ac|
dc df Ad fd|e^d eg Be ge|fd cd Bd AF|GE AF D1/2D1/2D D:|
